public/hero-main/RaJA.svg

<?xml version="1.0" encoding="UTF-8"?>
<svg id="Layer_2" data-name="Layer 2" xmlns="http://www.w3.org/2000/svg" viewBox="0 0 200.98 104.45">
  <g id="_レイヤー_1" data-name="レイヤー 1">
    <path fill="#fff" d="M20.947010000000002 50.00264H26.835340000000002C32.43408 50.00264 36.97099 51.74018 38.612 58.30422C39.287710000000004 60.91053000000001 40.349540000000005 68.05375000000001 41.314840000000004 72.20454000000001C42.66626 78.09287 46.23787 80.12 51.83661 80.12H59.46248V77.12757C52.41579 76.35533000000001 50.96784 71.62536 50.099070000000005 65.44744C49.037240000000004 57.33892 46.3344 50.67835 36.58487 48.361630000000005V48.16857C45.17604 46.52756 51.35396 41.31494 51.35396 32.62724C51.35396 24.036070000000002 47.010110000000005 17.08591 31.27572 17.08591H3.18549V20.078340000000004C11.100950000000001 20.560990000000004 11.29401 20.75405 11.29401 25.87014V71.33577C11.29401 76.35533000000001 11.100950000000001 76.54839 3.18549 77.12757V80.12H29.05553V77.12757C21.236600000000003 76.54839 20.947010000000002 76.35533000000001 20.947010000000002 71.33577ZM20.947010000000002 25.00137C20.947010000000002 21.140170000000005 20.947010000000002 20.464460000000003 26.835340000000002 20.464460000000003C33.49591 20.464460000000003 41.02525 21.42976 41.02525 33.496010000000005C41.02525 42.95595 36.58487 46.62409 27.70411 46.62409H20.947010000000002Z M98.94325 46.91368C98.94325 41.508 97.01265000000001 34.461310000000005 83.20886 34.461310000000005C72.78362000000001 34.461310000000005 65.44734000000001 39.86699 65.44734000000001 44.88655C65.44734000000001 47.782450000000004 68.63283000000001 49.2304 70.46690000000001 49.2304C72.39750000000001 49.2304 73.16974 48.16857 73.55586000000001 46.52756C75.58299000000001 39.77046 78.76848000000001 37.83986 82.43662 37.83986C86.87700000000001 37.83986 90.44861 40.060050000000004 90.44861 47.20327V50.388760000000005C88.13189 52.80201 79.44419 55.11873 72.30097 57.33892C65.73693 59.36605 63.80633 64.09602000000001 63.80633 68.43987C63.80633 75.29350000000001 68.34324000000001 81.27836 76.93441000000001 81.27836C82.53315 81.27836 87.45618 77.80328 90.35208 75.96921C91.51044000000002 79.54082000000001 93.15145000000001 81.27836 96.33694 81.27836C99.81202 81.27836 103.76975000000002 80.12 105.98994 78.67205L105.60382000000001 75.87268C104.34893000000001 76.16227 102.99751 76.06574 102.03221 75.87268C100.3912 75.48656 98.94325 73.84555 98.94325 68.15028000000001ZM90.44861 67.28151C90.44861 74.52126 85.04293000000001 76.25880000000001 81.56785 76.25880000000001C76.06564 76.25880000000001 73.26627 72.39760000000001 73.26627 67.18498C73.26627 62.84113000000001 75.19687 60.620940000000004 80.1199 58.690340000000006C83.78804000000001 57.33892 88.42148 55.601380000000006 90.44861 54.34649Z M129.06061 25.87014C129.06061 20.75405 129.3502 20.657520000000005 137.16913 20.078340000000004V17.08591H111.29909V20.078340000000004C119.21455 20.657520000000005 119.40761 20.75405 119.40761 25.87014V68.82599C119.40761 77.61022 117.86313000000001 82.24366 115.73947000000001 84.84997C113.71234000000001 87.26322 111.78174000000001 88.13199 108.98237 88.90423000000001L109.46502000000001 91.22095C113.03663000000002 91.02789 115.93253000000001 90.64177000000001 119.50414 89.00076C127.70919 85.23609 129.06061 77.70675 129.06061 68.34334000000001Z M200.97546 80.12V77.12757C195.76283999999998 76.74145 194.79754 76.45186000000001 193.15653 71.72189C188.2335 58.30422 178.96662 31.758470000000003 173.85053 16.69979H166.51425C160.33633 34.36478 153.67576 53.76731 147.11172 70.85312C145.27765 75.77615 144.40888 76.83798 138.71361 77.12757V80.12H158.79185V77.12757L154.06188 76.64492C151.26251 76.35533000000001 151.06945 75.39003000000001 151.74516 73.07331C153.28964 67.5711 155.22024 62.35848 157.24737 55.987500000000004H177.51867C178.77356 59.076460000000004 182.05558 68.43987 183.60005999999998 72.88025C184.56536 75.48656 184.08271 76.45186000000001 181.18681 76.74145L177.03602 77.12757V80.12ZM176.45684 52.415890000000005H158.50226C161.30163 43.4386 164.58365 33.882130000000004 167.28649000000001 26.063200000000002H167.57608C169.69974 32.04806 174.33318 45.851850000000006 176.45684 52.415890000000005Z"/>
  </g>
</svg>

<svg xmlns="http://www.w3.org/2000/svg" data-name="Layer 2" viewBox="0 0 200.98 104.45"><path fill="#fff" d="M20.947 50.003h5.888c5.6 0 10.136 1.737 11.777 8.301.676 2.607 1.738 9.75 2.703 13.9 1.351 5.889 4.923 7.916 10.522 7.916h7.625v-2.992c-7.046-.773-8.494-5.503-9.363-11.68-1.062-8.11-3.765-14.77-13.514-17.086v-.193c8.591-1.641 14.769-6.854 14.769-15.542 0-8.59-4.344-15.541-20.078-15.541H3.186v2.992c7.915.483 8.108.676 8.108 5.792v45.466c0 5.02-.193 5.212-8.109 5.792v2.992h25.87v-2.992c-7.818-.58-8.108-.773-8.108-5.792Zm0-25.002c0-3.86 0-4.537 5.888-4.537 6.66 0 14.19.966 14.19 13.032 0 9.46-4.44 13.128-13.32 13.128h-6.758Zm77.996 21.913c0-5.406-1.93-12.453-15.734-12.453-10.425 0-17.762 5.406-17.762 10.426 0 2.895 3.186 4.343 5.02 4.343 1.93 0 2.703-1.061 3.089-2.702 2.027-6.758 5.212-8.688 8.88-8.688 4.441 0 8.013 2.22 8.013 9.363v3.186c-2.317 2.413-11.005 4.73-18.148 6.95-6.564 2.027-8.495 6.757-8.495 11.1 0 6.855 4.537 12.84 13.128 12.84 5.6 0 10.522-3.476 13.418-5.31 1.158 3.572 2.8 5.31 5.985 5.31 3.475 0 7.433-1.159 9.653-2.607l-.386-2.8c-1.255.29-2.606.194-3.572 0-1.64-.385-3.089-2.026-3.089-7.722ZM90.45 67.282c0 7.24-5.406 8.977-8.881 8.977-5.502 0-8.302-3.861-8.302-9.074 0-4.344 1.93-6.564 6.854-8.495 3.668-1.351 8.301-3.089 10.329-4.344Zm38.61-41.412c0-5.116.29-5.212 8.108-5.792v-2.992H111.3v2.992c7.916.58 8.109.676 8.109 5.792v42.956c0 8.784-1.545 13.418-3.669 16.024-2.027 2.413-3.957 3.282-6.757 4.054l.483 2.317c3.572-.193 6.468-.58 10.04-2.22 8.204-3.765 9.556-11.294 9.556-20.658Zm71.914 54.25v-2.992c-5.212-.387-6.177-.676-7.818-5.406-4.924-13.418-14.19-39.964-19.306-55.022h-7.337c-6.178 17.665-12.838 37.067-19.402 54.153-1.834 4.923-2.703 5.985-8.398 6.275v2.992h20.078v-2.992l-4.73-.483c-2.8-.29-2.993-1.255-2.317-3.572 1.545-5.502 3.475-10.715 5.502-17.085h20.272c1.255 3.088 4.537 12.452 6.081 16.892.965 2.607.483 3.572-2.413 3.861l-4.151.387v2.992Zm-24.518-27.704h-17.955c2.8-8.977 6.082-18.534 8.784-26.353h.29c2.124 5.985 6.757 19.789 8.88 26.353" data-name="レイヤー 1"/></svg>
